X:16
M:2/4
L:1/8
K:D
|: G | F>EF>d | {G}F2 ED | E>DEF | G2 G>B | BAFA | AGFE |1 D3 :|2 D4 |]

